X: 13331
T: Flat House, The
R: reel
M: 4/4
K: Dmajor
AG|:F2 EF DEFA|dfec dB A2|BE {F}ED EFGA|(3Bcd ed cAAG|
F2 EF DEFA|dfec dB Aa|afec dBAF|DGAG FD D2:|:e|
faaf d3 f|eA ~A2 eA ~A2|faaf defa|bgeg fdde|
faaf dcdf|eA ~A2 eABA|~G3 A Bded|ceag fd d:|

